X: 1017
T: Wednesday Night Waltz
C:Traditional, Curly Ray Cline
B: jims roots
M:3/4
L:1/8
Q: 1/4=100
K:D
V:1 
(3A,B,D | "D"[a6f6] | "C#"[^g6^e6] | "D"[a3f3][af] [df] [Fd] | [F4A4][FA][F^A] | "G"[G4B4][B2d2] |
"C#"[^g6^e6] | "D"[f3a3][fa] [df][Ad] | [F4A4][F2^A2] | "G"[G3B3][Bd] [Bd][Bd] | [B2e2][B2d2][G2B2] |
"D"([F6A6] | [F4A4]) [F2^A2] |"G"[G3B3][Bd] [Bd][Bd] | [B2e2][B2d2][G2B2] | "D"[F2A2][F2d2][d2f2] |
V:B2e2 
V:B2d2 
[G2B2] | "D"[F6A6] | A,B, DE =F^F | [f6a6] |"C#"[^g6^e6] | "D"[f2a3][d3f3][Fd] |
V:F4A4 
V:F2A2 
 | "E"[^G2B2][c3e3][ce] | [c2e2][c2f2][c2=f2] | "A"[c4e4][c2f2] | [c4g4][^g6^e6] | "D"[f6a6] |
V:f3a3 
a fd | A3f (3fga | "A13"[G3c3f3]c (3cde | "D"d3d (3BAF | D4:|
% abcbook-tune_id 6298c297cb04fe4ccfcdfe35


% abcbook-boost 0
% abcbook-tablature 
% abcbook-transpose 
% abcbook-lastupdated 1654178456780
% abcbook-soundfonts 
% abcbook-repeats 1


